X: 26
T:Monferrina 1
M:6/8
L:1/8
N:1st tune of test with Monferrina 2
R:Jig (Monferrina)
N:http://www.lesession.co.uk
Z:Steve Mansfield 1998-2001
K:G
d ded |: B3 A3 | G2 D DED | F2 D DEF | G2 D ded | 
B3 A3 | G2 D DED | F2 D DEF |1 G3 ded :|2 G3 GAB |: 
G2 G GAB | B2 A FGA | F2 F FGA | c2 B ded | 
B3 A3 | G2 D DED | F2 D DEF |1 G3 GAB :|2 G3 G2 B |:
d2 d d2 d | g2 d d2 d | fed cde | d2 B G2 B | 
d2 d d2 d | g2 d d2 d | fed cBA |1 G3 G2 B :|2 G2 ||

